images/audio.svg

<?xml version="1.0" encoding="UTF-8"?>
<!-- Created with Inkscape (http://www.inkscape.org/) -->
<svg width="24" height="24" version="1.1" xmlns="http://www.w3.org/2000/svg" xmlns:cc="http://creativecommons.org/ns#" xmlns:dc="http://purl.org/dc/elements/1.1/" xmlns:rdf="http://www.w3.org/1999/02/22-rdf-syntax-ns#">
 <metadata>
  <rdf:RDF>
   <cc:Work rdf:about="">
    <dc:format>image/svg+xml</dc:format>
    <dc:type rdf:resource="http://purl.org/dc/dcmitype/StillImage"/>
   </cc:Work>
  </rdf:RDF>
 </metadata>
 <path d="m12 2c-1.662 0-3 1.338-3 3v8c0 1.662 1.338 3 3 3s3-1.338 3-3v-8c0-1.662-1.338-3-3-3zm-6 7v1h1v3c0 2.4238 1.7175 4.4415 4 4.9062v2.0938h-1v1h4v-1h-1v-2.0938c2.283-0.4647 4-2.4824 4-4.9062v-3h1v-1h-1-1v4c0 2.216-1.784 4-4 4s-4-1.784-4-4v-4h-1-1z" color="#ffffff"/>
</svg>

<?xml version="1.0" encoding="UTF-8" standalone="no"?>
<svg
   xmlns:dc="http://purl.org/dc/elements/1.1/"
   xmlns:cc="http://creativecommons.org/ns#"
   xmlns:rdf="http://www.w3.org/1999/02/22-rdf-syntax-ns#"
   xmlns:svg="http://www.w3.org/2000/svg"
   xmlns="http://www.w3.org/2000/svg"
   version="1.1"
   width="24"
   height="24"
   id="svg3330">
  <defs
     id="defs12" />
  <metadata
     id="metadata3335">
    <rdf:RDF>
      <cc:Work
         rdf:about="">
        <dc:format>image/svg+xml</dc:format>
        <dc:type
           rdf:resource="http://purl.org/dc/dcmitype/StillImage" />
        <dc:title />
      </cc:Work>
    </rdf:RDF>
  </metadata>
  <path
     id="path3122"
     style="color:#ffffff;fill:#3c3c3c"
     d="M 12,2 C 10.338,2 9,3.338 9,5 l 0,8 c 0,1.662 1.338,3 3,3 1.662,0 3,-1.338 3,-3 L 15,5 C 15,3.338 13.662,2 12,2 Z m -6,7 0,1 1,0 0,3 c 0,2.4238 1.7175,4.4415 4,4.9062 L 11,20 l -1,0 0,1 4,0 0,-1 -1,0 0,-2.0938 C 15.283,17.4415 17,15.4238 17,13 l 0,-3 1,0 0,-1 -1,0 -1,0 0,4 c 0,2.216 -1.784,4 -4,4 C 9.784,17 8,15.216 8,13 L 8,9 7,9 6,9 Z" />
</svg>
